X:1
T:Title
%%score 1 ( 2 3 ) 4
L:1/8
Q:1/4=135
M:2/2
K:Eb
V:1 treble nm="Choir Aahs, Staff"
V:2 treble nm="Grand Piano, Staff-1"
V:3 treble 
V:4 bass nm="Grand Piano, Staff-2"
V:1
 E4 E2 F2 | G4 G2 A2 | B4 c2 B2 | G8 | B4 A2 G2 | F8 | A4 G2 F2 | E8 | E4 E2 F2 | G4 G2 A2 | %10
w: By~Thomas~Haynes~Bayly * *||||||||||
 B4 c2 B2 | G8 | B4 A2 G2 | F4 G3 F | E8- | E8 | B4 A2 G2 | F4 B,2 B,2 | A4 G2 F2 | E8 | B4 A2 G2 | %21
w: |||||||||||
 F4 B,2 B,2 | A4 G2 F2 | E8 | E4 E2 F2 | G4 G2 A2 | B4 c2 B2 | G8 | B4 A2 G2 | F4 G3 F | E8- | %31
w: ||||||||||
 E8 |] %32
w: |
V:2
 [B,E]4 [B,E]2 [=B,F]2 | [EG]4 [EG]2 [DA]2 | [EB]4 c2 B2 | [CEG]8 | [CFB]4 A2 G2 | F4- [A,F]4 | %6
 [B,DA]4 [B,G]2 [A,F]2 | [B,E]8 | [B,E]4 [B,E]2 [=B,F]2 | [EG]4 [EG]2 [DA]2 | [EB]4 c2 B2 | %11
 [CEG]8 | [CFB]4 A2 G2 | [CF]4 G3 F | [B,E]8- | [B,E]8 | [DFB]4 A2 G2 | F4 B,2 B,2 | %18
 [CEA]4 [B,G]2 [A,F]2 | [B,E]8 | [DFB]4 A2 G2 | F4 B,2 B,2 | [CEA]4 [B,G]2 [A,F]2 | [B,E]8 | %24
 [B,E]4 [B,E]2 [=B,F]2 | [EG]4 [EG]2 [DA]2 | [EB]4 c2 B2 | [CEG]8 | [CFB]4 A2 G2 | [CF]4 G3 F | %30
 [B,E]8- | [B,E]8 |] %32
V:3
 x8 | x8 | z4 E4 | x8 | z4 C4 | C4 z4 | x8 | G,4 G,4 | x8 | x8 | z4 E4 | x8 | z4 C4 | z4 [A,D]4 | %14
 G,4 G,4- | G,8 | z4 [B,D]4- | [B,D]4 z4 | z4 D4 | G,4 G,4 | z4 [B,D]4- | [B,D]4 z4 | z4 D4 | %23
 G,4 G,4 | x8 | x8 | z4 E4 | x8 | z4 C4 | z4 [A,D]4 | G,4 G,4 | G,8 |] %32
V:4
 [E,G,]4 [E,G,]2 [D,A,]2 | [C,G,]4 [C,G,]2 [=B,,F,]2 | [B,,G,]4 [A,,A,]2 [G,,G,]2 | %3
 C,2 G,2 E,2 C,2 | F,,2 C,2 F,2 G,2 | A,2 F,2 C,2 F,,2 | F,2 B,,6 | E,,2 B,,2 E,2 B,,2 | %8
 [E,G,]4 [E,G,]2 [D,A,]2 | [C,G,]4 [C,G,]2 [=B,,F,]2 | [B,,G,]4 [A,,A,]2 [G,,G,]2 | %11
 C,2 G,2 E,2 C,2 | F,,2 C,2 F,2 G,2 | A,2 F,2 B,,4 | E,,2 B,,2 E,2 B,,2 | E,,2 B,,2 E,2 G,2 | %16
 B,2 B,,2 F,2 G,2 | A,2 B,,6 | F,2 B,,6 | E,,2 B,,2 E,2 A,,2 | B,2 B,,2 F,2 G,2 | A,2 B,,6 | %22
 F,2 B,,6 | E,,2 B,,4 B,,2 | [E,G,]4 [E,G,]2 [D,A,]2 | [C,G,]4 [C,G,]2 [=B,,F,]2 | %26
 [B,,G,]4 [A,,A,]2 [G,,G,]2 | C,2 G,2 E,2 C,2 | F,,2 C,2 F,2 G,2 | A,2 F,2 B,,4 | %30
 E,,2 B,,2 E,2 B,,2 | E,,8 |] %32

